(Created with Marlin post processor 2015/04/18 17:17)
G90 
(V60-50)
G0 Z15 F10000
G0 X0.023 Y0.149  
M3 S15000
G4 P3
G0 Z0.5  
G1 Z-0.051 F5 
G1 X4.984 Y4.986 F50 
G1 X0.023 Y9.95  
G1 X4.984 Y15.042  
G1 X-0.04 Y19.942  
G1 X5.047 Y25.097  
G1 X-0.04 Y29.998  
G1 X4.984 Y34.962  
G1 X0.023 Y39.862  
G0 Z2 F10000 
G90
(V60-100)
G0 X2.567 Y0.149  
M3 S15000
G4 P1
G0 Z0.5  
G1 Z-0.051 F5 
G1 X7.528 Y4.986 F100 
G1 X2.567 Y9.95  
G1 X7.528 Y15.042  
G1 X2.503 Y19.942  
G1 X7.591 Y25.097  
G1 X2.503 Y29.998  
G1 X7.528 Y34.962  
G1 X2.567 Y39.862  
G0 Z2 F10000 
G90
(V60-150)
G0 X5.111 Y0.149  
M3 S15000
G4 P1
G0 Z0.5  
G1 Z-0.051 F5 
G1 X10.072 Y4.986 F150 
G1 X5.111 Y9.95  
G1 X10.072 Y15.042  
G1 X5.047 Y19.942  
G1 X10.135 Y25.097  
G1 X5.047 Y29.998  
G1 X10.072 Y34.962  
G1 X5.111 Y39.862  
G0 Z2 F10000 
G90
(V60-200)
G0 X7.655 Y0.149  
M3 S15000
G4 P1
G0 Z0.5  
G1 Z-0.051 F5 
G1 X12.616 Y4.986 F200 
G1 X7.655 Y9.95  
G1 X12.616 Y15.042  
G1 X7.591 Y19.942  
G1 X12.679 Y25.097  
G1 X7.591 Y29.998  
G1 X12.616 Y34.962  
G1 X7.655 Y39.862  
G0 Z2 F10000 
G90
(V60-250)
G0 X10.072 Y0.149  
M3 S15000
G4 P1
G0 Z0.5  
G1 Z-0.051 F5 
G1 X15.033 Y4.986 F250 
G1 X10.072 Y9.95  
G1 X15.033 Y15.042  
G1 X10.008 Y19.942  
G1 X15.096 Y25.097  
G1 X10.008 Y29.998  
G1 X15.033 Y34.962  
G1 X10.072 Y39.862  
G0 Z2 F10000 
G90
(V60-300)
G0 X12.616 Y0.149  
M3 S15000
G4 P1
G0 Z0.5  
G1 Z-0.051 F5 
G1 X17.577 Y4.986 F300 
G1 X12.616 Y9.95  
G1 X17.577 Y15.042  
G1 X12.552 Y19.942  
G1 X17.64 Y25.097  
G1 X12.552 Y29.998  
G1 X17.577 Y34.962  
G1 X12.616 Y39.862  
G0 Z2 F10000 
G90
(V60-350)
G0 X17.704 Y0.149  
M3 S15000
G4 P1
G0 Z0.5  
G1 Z-0.051 F5 
G1 X22.665 Y4.986 F350 
G1 X17.704 Y9.95  
G1 X22.665 Y15.042  
G1 X17.64 Y19.942  
G1 X22.729 Y25.097  
G1 X17.64 Y29.998  
G1 X22.665 Y34.962  
G1 X17.704 Y39.862  
G0 Z2 F10000 
G90
(V60-400)
G0 X15.16 Y0.149  
M3 S15000
G4 P1
G0 Z0.5  
G1 Z-0.051 F5 
G1 X20.121 Y4.986 F400 
G1 X15.16 Y9.95  
G1 X20.121 Y15.042  
G1 X15.096 Y19.942  
G1 X20.184 Y25.097  
G1 X15.096 Y29.998  
G1 X20.121 Y34.962  
G1 X15.16 Y39.862  
G0 Z2 F10000 
G90
(V60-50-0.75)
G0 X19.866 Y0.213  
M3 S15000
G4 P1
G0 Z0.5 
G1 Z-0.075 F5 
G1 X24.827 Y5.05 F50 
G1 X19.866 Y10.014  
G1 X24.827 Y15.105  
G1 X19.803 Y20.006  
G1 X24.891 Y25.161  
G1 X19.803 Y30.061  
G1 X24.827 Y35.025  
G1 X19.866 Y39.926  
G0 Z2 F10000 
G90
(V60-100-0.75)
G0 X22.41 Y0.213  
M3 S15000
G4 P1
G0 Z0.5  
G1 Z-0.075 F5 
G1 X27.371 Y5.05 F100 
G1 X22.41 Y10.014  
G1 X27.371 Y15.105  
G1 X22.347 Y20.006  
G1 X27.435 Y25.161  
G1 X22.347 Y30.061  
G1 X27.371 Y35.025  
G1 X22.41 Y39.926  
G0 Z2 F10000 
G90
(V60-150-0.75)
G0 X27.499 Y0.213  
M3 S15000
G4 P1
G0 Z0.5  
G1 Z-0.075 F5 
G1 X32.46 Y5.05 F150 
G1 X27.499 Y10.014  
G1 X32.46 Y15.105  
G1 X27.435 Y20.006  
G1 X32.523 Y25.161  
G1 X27.435 Y30.061  
G1 X32.46 Y35.025  
G1 X27.499 Y39.926  
G0 Z2 F10000 
G90
(V60-200-0.75)
G0 X24.955 Y0.213  
M3 S15000
G4 P1
G0 Z0.5 
G1 Z-0.075 F5 
G1 X29.915 Y5.05 F200 
G1 X24.955 Y10.014  
G1 X29.915 Y15.105  
G1 X24.891 Y20.006  
G1 X29.979 Y25.161  
G1 X24.891 Y30.061  
G1 X29.915 Y35.025  
G1 X24.955 Y39.926  
G0 Z2 F10000 
G90
(V60-100-1)
G0 X32.46 Y0.213  
M3 S15000
G4 P1
G0 Z0.5  
G1 Z-0.1 F5 
G1 X37.42 Y5.05 F100 
G1 X32.46 Y10.014  
G1 X37.42 Y15.105  
G1 X32.396 Y20.006  
G1 X37.484 Y25.161  
G1 X32.396 Y30.061  
G1 X37.42 Y35.025  
G1 X32.46 Y39.926  
G0 Z2 F10000 
G90
(V60-200-1)
G0 X29.915 Y0.213  
M3 S15000
G4 P1
G0 Z0.5  
G1 Z-0.1 F5 
G1 X34.876 Y5.05 F200 
G1 X29.915 Y10.014  
G1 X34.876 Y15.105  
G1 X29.852 Y20.006  
G1 X34.94 Y25.161  
G1 X29.852 Y30.061  
G1 X34.876 Y35.025  
G1 X29.915 Y39.926  
G0 Z2 F10000 
G90
(V60-300-1)
G0 X35.004 Y0.213  
M3 S15000
G4 P1
G0 Z0.5  
G1 Z-0.1 F5 
G1 X39.965 Y5.05 F300 
G1 X35.004 Y10.014  
G1 X39.965 Y15.105  
G1 X34.94 Y20.006  
G1 X40.028 Y25.161  
G1 X34.94 Y30.061  
G1 X39.965 Y35.025  
G1 X35.004 Y39.926  
G0 Z15 F10000 
G4 P1
M05
